X: 11914
T: Emmett's Revenge
R: polka
M: 2/4
K: Gmajor
|:G>A BG|BG GF|EG cA|dA FA|
G>A BG|BG GF|Ec AF|G2 GF:|
K: Emin
|:E>F GA|BG EB|Ad d^c|dB AF|
E>F GA|BG EA|Bc/B/ AF|1 dA FD:|2 dA FA||

